X:1
T:Title
%%score { ( 1 3 ) | ( 2 4 ) }
L:1/8
Q:1/4=126
M:6/4
K:D
V:1 treble nm="Grand Piano"
V:3 treble 
V:2 bass 
V:4 bass 
V:1
 F2 =F2 ^F2 A2 B2 F2 | A12 | [CA]2 [CE]2 [DF]2 [EG]2 [DF]2 [CE]2 | D12 | %4
w: Samuel~W.~Beazley * * * * *||||
 [B,D]2 [DB]2 [DB]2 [DB]2 [Dc]2 [DB]2 | A2 A2 A2 A2 B2 A2 | ^G2 F2 E2 d2 c2 B2 | %7
w: |||
[M:7/4] A6- [CGA]4- [C-G-A]>[CG] z2 |[M:6/4] d2 c2 B2 d2 c2 [FB]2 | c2- [Gc-]2 [Gc-]2 [Gc]4 [GA]2 | %10
w: |||
 c2 B2 A2 c2 B2 [A,GA]2 | B6 z6 | [Fd]2 [Fd]2 [Fd]2 F2 G2 A2 |[M:7/4] B2 B2 B2 [^Ge]6 d2 | %14
w: ||||
[M:6/4] c2 B2 A2 [CEA]2 [GB]2 [Gc]2 | d12 |] %16
w: ||
V:2
 [D,A,D]2 [D,^G,D]2 [D,A,D]2 [D,F,D]2 [D,G,D]2 [D,A,D]2 | [D,F,D]4 [D,F,]2 [D,F,]4 [D,F,D]2 | %2
 [A,,E,]2 [A,,A,]2 [A,,A,]2 [A,,A,]2 [A,,A,]2 [A,,G,]2 | [D,F,]4 [D,G,]2 [D,F,]4 [D,F,=C]2 | %4
 [G,,G,]2 [G,,G,]2 [G,,G,]2 [G,,G,]2 [G,,G,]2 [G,,G,]2 | %5
 [D,F,D]2 [D,F,D]2 [D,F,D]2 [D,F,D]2 [D,G,D]2 [D,F,D]2 | %6
 [E,B,D]2 [E,A,D]2 [E,^G,D]2 [E,B,E]2 [E,A,E]2 [E,G,D]2 |[M:7/4] A,,6 A,6 z2 | %8
[M:6/4] [D,A,]6 [D,A,]4 [^D,A,]2 | [E,A,]2 [E,A,]2 [E,A,]2 [A,,A,]4 [A,,E,]2 | z6 .A,6 | %11
 [D,A,]2 [D,B,]2 [D,C]2 [D,D]4 [D,D][D,D] | [D,A,]2 [D,A,]2 [D,A,]2 [D,A,D]2 [E,A,C]2 [F,D]2 | %13
[M:7/4][K:treble] [G,DG]2 [G,DG]2 [G,B,G]2[K:bass] [E,B,]6 [^G,B,E]2 | %14
[M:6/4][K:treble] [A,E]2 [A,DG]2 [A,CG]2[K:bass] A,,2 [A,,A,]2 [A,,A,]2 | .A,6 z6 |] %16
V:3
 x12 | z4 D2 D4 A2 | x12 | z4 B,2 A,4 D2 | x12 | x12 | x12 |[M:7/4] [A,C]6 z2 z2 z4 | %8
[M:6/4] F6 .F6 | .G6 z6 | G6 .G6 | F2 F2 F2 [FA]4 [FA][FA] | x12 |[M:7/4] x14 |[M:6/4] x12 | %15
 F2 F2 G2 .F6 |] %16
V:4
 x12 | x12 | x12 | x12 | x12 | x12 | x12 |[M:7/4] x14 |[M:6/4] x12 | x12 | [A,,E,]6 A,,2 B,,2 C,2 | %11
 x12 | x12 |[M:7/4][K:treble] x6[K:bass] x8 |[M:6/4][K:treble] x6[K:bass] x6 | %15
 D,2- [D,-A,]2 [D,-B,]2 [D,A,]6 |] %16

